!!!COM:	Bach, Johann Sebastian
!!!CDT:	1685/02/21/-1750/07/28/
!!!OTL@@DE:	Nun ruhen alle W&auml;lder
!!!SCT:	BWV 44/7
!!!PC#:	355
!!!AGN:	chorale
**kern	**kern	**kern	**kern
*ICvox	*ICvox	*ICvox	*ICvox
*Ibass	*Itenor	*Ialto	*Isoprn
*I"Bass	*I"Tenor	*I"Alto	*I"Soprano
*clefF4	*clefGv2	*clefG2	*clefG2
*k[b-e-]	*k[b-e-]	*k[b-e-]	*k[b-e-]
*B-:	*B-:	*B-:	*B-:
*M4/4	*M4/4	*M4/4	*M4/4
*met(c)	*met(c)	*met(c)	*met(c)
*MM100	*MM100	*MM100	*MM100
4BB-	4B-	4f	4dd
=1	=1	=1	=1
8E-L	4G	4e-	4b-
8DJ	.	.	.
4C	4A	4e-	4cc
4BB-	8B-L	8dL	8ddL
.	8cJ	8cJ	8ee-J
8B-L	4d	4B-	4ff
8AJ	.	.	.
=2	=2	=2	=2
4G	4d	4b-	2ee-
4A	4c	4f	.
4B-;	4B-;	4f;	4dd;
4G	4B-	4g	8ddL
.	.	.	8ee-J
=3	=3	=3	=3
8DL	4B-	8fL	4ff
8CJ	.	8e-J	.
8DL	4B-	8fL	4ff
8E-J	.	8gJ	.
4F	4f	4a	4cc
4D	4f	4a	4dd
=4	=4	=4	=4
2G	4f	2g	2b-
.	4e	.	.
4F;	4f;	4c;	4a;
4E-	4A	4c	4f
=5	=5	=5	=5
4D	4B-	4f	4b-
4C	4e-X	8gL	4cc
.	.	8aJ	.
8BB-L	8fL	4b-	4dd
8CJ	8AJ	.	.
8DL	4B-	4f	8ddL
8E-J	.	.	8ccJ
=6	=6	=6	=6
2.F;	2.A;	2.f;	2.cc;
4F#	4d	4a	4dd
=7	=7	=7	=7
4G	4d	4g	4b-
4A	4c	4f	4cc
4B-	8B-L	4f	8ddL
.	8cJ	.	8ee-J
4B	4d	4g	4ff
=8	=8	=8	=8
4c	8cL	4g	2ee-
.	8BJ	.	.
4C	4A	4f#	.
4G;	4B;	4g;	4dd;
4G	4B-	4g	4dd
=9	=9	=9	=9
4d	8AL	4fnX	4ff
.	8GJ	.	.
8cL	8AL	4f	4ff
8B-J	8B-J	.	.
4A	4c	4f	4cc
8B-L	8B-L	4f	4dd
8AJ	8cJ	.	.
=10	=10	=10	=10
4G	4d	4f	2b-
4c	4c	4e	.
4F;	4c;	4f;	4a;
4D	4d	4a	4f
=11	=11	=11	=11
4G	4d	4g	4b-
4A	4c	4f	4cc
8B-L	4B-	4f	4dd
8AJ	.	.	.
4G	8B-L	8b-L	4ee-
.	8cJ	8aJ	.
=12	=12	=12	=12
8FL	8dL	4b-	8ddL
8E-J	8B-J	.	8ccJ
4F	8fL	4a	4cc
.	8e-J	.	.
4BB-;	4d;	4f;	4b-;
==	==	==	==
*-	*-	*-	*-
!!!hum2abc: -Q ''
!!!title: @{PC#}. @{OTL@@DE}
!!!YOR1: 371 vierstimmige Choralges&auml;nge von Johann Sebastian Bach, 
!!!YOR2: 4th ed. by Alfred D&ouml;rffel (Leipzig: Breitkopf und H&auml;rtel, 
!!!YOR2: c.1875). 178 pp. Plate "V.A.10".  reprint: J.S. Bach, 371 Four-Part 
!!!YOR4: Chorales (New York: Associated Music Publishers, Inc., c.1940).
!!!SMS: B&H, 4th ed, Alfred D&ouml;rffel, c.1875, plate V.A.10
!!!EED:  Craig Stuart Sapp
!!!EEV:  2009/05/22
